X: 305626
M: 6/8
L: 1/8
K: Eb
EFG FED | EGB edf | egf dfe | c3 B2 B, |\
EFG FED | EGB e2g | bbb b2d | e3 e2 H|]
g |\
g2g gfg | d2d dcd | efg gfe | d2c B2G |\
f3 fgf | e2e ede | f2f fg=g | a2g f2 B |\
f3 fgf | e3 efg | [a2f2]f g2f | e3 "^D.C."z2 |]


